!!!!SEGMENT: pl-wnifc--6807-n_monczynski-roman--melodie-religijne-op-26.krn
!!!cenid: 18xx:3964
!!!COM: Monczyński, Roman
!!!COM-rismID: pe50045304
!!!CDT: <1842->1854
!!!CNT: Polish
!!!OTL: Melodie religijne op. 26
!!!PDT:
!!!AGN:
!!!SMS-siglum: PL-Wnifc
!!!SMS-shelfmark: 6807/n
!!!SMS-shelfwork: W
!!!SMS-variant:
!!!SMS-altvar:
!!!NIFC-rismSourceID: 1001159068
!!!NIFC-rismChildID: 1001159068
!!!NIFC-islandoraID: nifc:213597
!!!URL-pdf-islandora: https://repozytorium.nifc.pl/islandora/object/nifc%3A213597/datastream/PDF/view
!!!URL-scan: https://polish.musicsources.pl/pl/lokalizacje/galeria/druki-muzyczne/16927 @EN{Scan on Polish Music Sources Website} @PL{Skany w portalu Dziedzictwo Muzyki Polskiej w otwartym dostępie}
!!!ONB-nifc:
!!!AIN: 2 piano
!!!key: E-
**kern	**dynam	**kern	**dynam
*part2	*part2	*part1	*part1
*staff2	*	*staff1	*
*I"Piano	*	*I"Piano	*
*	*	*I'pf	*
*Ipiano	*	*Ipiano	*
*ICklav	*	*ICklav	*
*clefF4	*	*clefG2	*
*k[b-e-a-]	*	*k[b-e-a-]	*
*E-:	*	*E-:	*
*M4/4	*	*M4/4	*
*met(c)	*	*met(c)	*
=1	=1	=1	=1
*	*	*^	*
!	!	!LO:TX:b:i:t=La main gauche seule.	!	!
!	!	!LO:TX:a:B:t=Andante	!	!
!	!	!LO:TX:a:B:t=Andante religioso.	!	!
*	*above	*	*	*
4BBB-/ 4BB-	f	1r	2ryy	.
8.BBB-/L 8.BB-	.	.	.	.
16AAA-/Jk 16AA-	.	.	.	.
16GGG/LL 16GG	.	.	16ryy	.
(<32EE-/L	p	.	16ryy	.
32BB-/JJJ	.	.	.	.
32E-\LLL	.	.	4.ryy	.
32G\	.	.	.	.
32A-\	.	.	.	.
32An\JJJ	.	.	.	.
32B-\LLL	.	.	.	.
32g>\	.	.	.	.
32e->\	.	.	.	.
32B-\JJJ	.	.	.	.
32G\LLL	.	.	.	.
32E-\	.	.	.	.
32BB-\	.	.	.	.
32GG\JJJ)	.	.	.	.
!LO:LB:g=original	!	!	!LO:LB:g=original	!
=2	=2	=2	=2	=2
4AA-/ 4A-	f	1ryy	2ryy	.
8.AA-/L 8.A-	.	.	.	.
16GG/Jk 16G	.	.	.	.
16FF/LL 16F	.	.	16ryy	.
(<32BBB-/L	p	.	16ryy	.
32FF/JJJ	.	.	.	.
32BB-/LLL	.	.	4.ryy	.
32D/	.	.	.	.
32E-/	.	.	.	.
32En/JJJ	.	.	.	.
32F\LLL	.	.	.	.
32f>\	.	.	.	.
32d>\	.	.	.	.
32B-\JJJ	.	.	.	.
32F/LLL	.	.	.	.
32D/	.	.	.	.
32BB-/	.	.	.	.
32FF/JJJ)	.	.	.	.
*	*	*v	*v	*
=3	=3	=3	=3
!	!	!	!LO:DY:a
4G>\ 4B-> 4e->	.	4g/	f
4A->\ 4c>	.	8.g/L	.
.	.	16f/Jk	.
4An>\ 4c>	.	4e-/	.
4AAn^^<;:/ 4C: 4E-: 4F#X: 4An:	.	4ryy	ff
!LO:LB:g=original	!	!LO:LB:g=original	!
=4	=4	=4	=4
*	*	*^	*
16BB-`:/LL 16E-: 16G: 16B-:	f	1r	2ryy	.
(32BBB-/L	.	.	.	.
32EE-/JJJ	.	.	.	.
32GG/LLL	.	.	.	.
32AA-/	.	.	.	.
32AAn/	.	.	.	.
32BB-/JJJ)	.	.	.	.
(32C/LLL	.	.	.	.
32BB-/	.	.	.	.
32AA/	.	.	.	.
32BB-/JJJ)	.	.	.	.
(32c\LLL	.	.	.	.
32B-\	.	.	.	.
32An\	.	.	.	.
32B-\JJJ)	.	.	.	.
[4cc-X>;>\	.	.	4ryy	sf
8qqcc->`>\L]	.	.	.	.
8qqb->`>\	.	.	.	.
8qqa->`>\	.	.	.	.
8qqf>`>\	.	.	.	.
8qqd>`>\	.	.	.	.
8qqB-`>/	.	.	.	.
8qqA-X`>/	.	.	.	.
8qqF`>/	.	.	.	.
8qqD`>/	.	.	.	.
8qqBB-`>/	.	.	.	.
8qqAA-X`>/	.	.	.	.
!	!	!LO:TX:b:i:t=rall.	!	!
8qqFF`/J	.	.	.	.
8Cn/	.	.	4ryy	.
!LO:TX:t=P:problem:LO:N:vis=8.	!	!	!	!
16.r;	.	.	.	.
!LO:TX:t=P:problem:LO:N:vis=16	!	!	!	!
(32BB-/	.	.	.	.
!LO:PB:g=original	!	!LO:PB:g=original	!	!
*	*	*v	*v	*
=5	=5	=5	=5
*M4/4	*	*M4/4	*
*met(c)	*	*met(c)	*
!LO:TX:t=P:problem:LO:N:vis=8	!	!LO:TX:a:B:t=Tempo 1.o	!
16EE-/LL)	.	1r	p
(<32EE-/L	.	.	.
32BB-/JJJ	.	.	.
32E-\LLL	.	.	.
32G\	.	.	.
32A-\	.	.	.
32An\JJJ	.	.	.
32B-\LLL	.	.	.
32g>\	.	.	.
32e->\	.	.	.
32B-\JJJ	.	.	.
32G/LLL	.	.	.
32E-/	.	.	.
32BB-/	.	.	.
32GG/JJJ)	.	.	.
!LO:TX:t=P:problem:LO:N:vis=8	!	!	!
16c\LL	.	.	.
(<32EE-/L	.	.	.
32BB-/JJJ	.	.	.
32E-\LLL	.	.	.
32G\	.	.	.
32A\	.	.	.
32A\JJJ	.	.	.
32B-\LLL	.	.	.
32g>\	.	.	.
32e->\	.	.	.
32B-\JJJ	.	.	.
32G/LLL	.	.	.
32E-/	.	.	.
32BB-/	.	.	.
32GG/JJJ)	.	.	.
!LO:LB:g=original	!	!LO:LB:g=original	!
=6	=6	=6	=6
*^	*	*	*
!	!	!	!LO:TX:a:t=Tema.	!
!LO:TX:t=P:problem:LO:N:vis=8	!	!	!LO:TX:a:i:t=marcato il canto e con espressione.	!
4B-/	16B-\LL	.	1r	.
!LO:TX:b:i:t=l`accompagnamento	!	!	!	!
.	32EE-/L	.	.	.
.	32BB-/JJJ	.	.	.
.	32E-\LLL	.	.	.
.	32G\	.	.	.
.	32A-\	.	.	.
.	32An\JJJ	.	.	.
32B-/LLL	8B-\L	.	.	.
32g>\	.	.	.	.
32e->\	.	.	.	.
32B->\	.	.	.	.
*	*	*below	*	*
32A-X/	8A-\J	p	.	.
32E-/	.	.	.	.
32BB-/	.	.	.	.
32GG/JJJ	.	.	.	.
!LO:TX:t=P:problem:LO:N:vis=8	!	!	!	!
4.G/	16G\LL	.	.	.
.	32EE-\L	.	.	.
.	32BB-\JJJ	.	.	.
!LO:TX:b:i:t= e legatissimo.	!	!	!	!
.	32E-\LLL	.	.	.
.	32G\	.	.	.
.	32B-\	.	.	.
.	32e->\JJJ	.	.	.
.	32g>\LLL	.	.	.
.	32e->\	.	.	.
.	32B->\	.	.	.
.	32e->\JJJ	.	.	.
8G/	32G\LLL	.	.	.
.	32E-\	.	.	.
.	32BB-\	.	.	.
.	32GG\JJJ	.	.	.
!LO:LB:g=original	!LO:LB:g=original	!	!	!
=7	=7	=7	=7	=7
*	*	*	*^	*
!LO:TX:t=P:problem:LO:N:vis=8	!	!	!	!	!
[8G/	16G\LL	.	1r	4ryy	.
.	32EE-\L	.	.	.	.
.	32BB-\JJJ	.	.	.	.
!LO:TX:t=P:problem:LO:N:vis=8	!	!	!	!	!
16G/LL]	32E-\LLL	.	.	.	.
.	32BB-\	.	.	.	.
32A-/L	32A-\	.	.	.	.
32G/JJJ	32G\JJJ	.	.	.	.
32F/LLL	8F\L	<	.	8ryy	.
32f>\	.	.	.	.	.
32d>\	.	.	.	.	.
32B->\	.	.	.	.	.
32G/	8G\J	[	.	8ryy	.
32E-/	.	.	.	.	.
32BB-/	.	.	.	.	.
32GG/JJJ	.	.	.	.	.
!LO:TX:t=P:problem:LO:N:vis=8	!	!	!	!	!
*	*	*above	*	*	*
4B-/	16B-\LL	sf	.	2ryy	.
.	32FF\L	.	.	.	.
.	32BB-\JJJ	.	.	.	.
.	32D\LLL	.	.	.	.
.	32E-\	.	.	.	.
.	32F\	.	.	.	.
.	32G\JJJ	.	.	.	.
4A-/	32A-\LLL	.	.	.	.
.	32F\	.	.	.	.
.	32D\	.	.	.	.
.	32BB-\JJJ	.	.	.	.
.	32AA-\LLL	.	.	.	.
.	32FF\	.	.	.	.
.	32DD\	.	.	.	.
.	32BBB-\JJJ	.	.	.	.
!LO:LB:g=original	!LO:LB:g=original	!	!	!LO:LB:g=original	!
*	*	*	*v	*v	*
=8	=8	=8	=8	=8
4A-/	32A-\LLL	.	1r	.
.	32BBB-\	.	.	.
.	32FF\	.	.	.
.	32BB-\JJJ	.	.	.
.	32D\LLL	.	.	.
.	32E-\	.	.	.
.	32F\	.	.	.
.	32G\JJJ	.	.	.
32A-/LLL	8A-\L	.	.	.
32f>\	.	.	.	.
32d>\	.	.	.	.
32B->\	.	.	.	.
32G/	8G\J	.	.	.
32F/	.	.	.	.
32D/	.	.	.	.
32BB-/JJJ	.	.	.	.
!LO:TX:t=P:problem:LO:N:vis=8	!	!	!	!
4.F/	16F\LL	.	.	.
.	32BBB-\L	.	.	.
.	32FFF\JJJ	.	.	.
.	32DD\LLL	.	.	.
.	32BBB-\	.	.	.
.	32FF\	.	.	.
.	32DD\JJJ	.	.	.
.	32BB-\LLL	.	.	.
.	32FF\	.	.	.
.	32D\	.	.	.
.	32BB-\JJJ	.	.	.
8F/	32F\LLL	.	.	.
.	32D\	.	.	.
.	32B-\	.	.	.
.	32F\JJJ	.	.	.
!LO:LB:g=original	!	!	!LO:LB:g=original	!
=9	=9	=9	=9	=9
*	*	*	*^	*
8c/L	32c\LLL	.	1r	32ryy	.
*	*	*below	*	*	*
.	32BB-\	>	.	8.ryy	.
.	32D\	.	.	.	.
.	32F\JJJ	.	.	.	.
8c/J	32c\LLL	.	.	.	.
.	32BB-\	.	.	.	.
.	32D\	.	.	.	.
.	32F\JJJ	.	.	32ryy	.
32B-/LLL	8B-\L	.	.	8.ryy	.
32f>\	.	.	.	.	.
32d>\	.	.	.	.	.
32B->\	.	.	.	.	.
32A-/	8A-\J	.	.	.	.
32F/	.	.	.	.	.
32D/	.	]	.	16ryy	.
32BB-/JJJ	.	.	.	.	.
4A-/	32A-\LLL	.	.	2ryy	.
.	32EE-\	.	.	.	.
.	32BB-\	.	.	.	.
.	32E-\	.	.	.	.
.	32G\	.	.	.	.
.	32B-\	.	.	.	.
.	32e-\	.	.	.	.
.	32g\JJJ	.	.	.	.
4G/	32G\LLL	.	.	.	.
.	32g\	.	.	.	.
.	32e-\	.	.	.	.
.	32B-\	.	.	.	.
.	32G\	.	.	.	.
.	32E-\	.	.	.	.
.	32BB-\	.	.	.	.
.	32GG\JJJ	.	.	.	.
!LO:LB:g=original	!LO:LB:g=original	!	!	!LO:LB:g=original	!
*	*	*	*v	*v	*
=10	=10	=10	=10	=10
16B-\LL	4ryy	.	1r	.
!	!	!	!LO:LB:g=original	!
32EE-\L	.	.	.	.
32BB-\JJJ	.	.	.	.
32E-\LLL	.	.	.	.
32G\	.	.	.	.
32A-\	.	.	.	.
32An\JJJ	.	.	.	.
32B-/LLL	8B-\L	.	.	.
32g>\	.	.	.	.
32e->\	.	.	.	.
32B->\	.	.	.	.
32A-X/	8A-\J	.	.	.
32E-/	.	.	.	.
32BB-/	.	.	.	.
32GG/JJJ	.	.	.	.
4.G/	16G\LL	.	.	.
.	32EE-\L	.	.	.
.	32BB-\JJJ	.	.	.
.	32E-\LLL	.	.	.
.	32G\	.	.	.
.	32B-\	.	.	.
.	32e->\JJJ	.	.	.
.	32g>\LLL	.	.	.
.	32e->\	.	.	.
.	32B->\	.	.	.
.	32e->\JJJ	.	.	.
8G/	32G\LLL	.	.	.
.	32E-\	.	.	.
.	32BB-\	.	.	.
.	32GG\JJJ	.	.	.
!LO:LB:g=original	!LO:LB:g=original	!	!	!
=11	=11	=11	=11	=11
*	*	*	*^	*
[8G/	16G\LL	.	1r	4ryy	.
.	32EE-\L	.	.	.	.
.	32BB-\JJJ	.	.	.	.
16G/LL]	32E-\LLL	.	.	.	.
.	32BB-\	.	.	.	.
32A-/L	32A-\	.	.	.	.
32G/JJJ	32G\JJJ	.	.	.	.
32F/LLL	8F\L	<	.	8ryy	.
32f>\	.	.	.	.	.
32d>\	.	.	.	.	.
32B->\	.	.	.	.	.
32G/	8G\J	[	.	8ryy	.
32E-/	.	.	.	.	.
32BB-/	.	.	.	.	.
32GG/JJJ	.	.	.	.	.
*	*	*above	*	*	*
4B-/	16B-\LL	sf	.	2ryy	sf
!	!	!	!	!LO:LB:g=original	!
.	32FF\L	.	.	.	.
.	32BB-\JJJ	.	.	.	.
.	32D\LLL	.	.	.	.
.	32E-\	.	.	.	.
.	32F\	.	.	.	.
.	32G\JJJ	.	.	.	.
4A-/	32A-\LLL	.	.	.	.
.	32F\	.	.	.	.
.	32D\	.	.	.	.
.	32BB-\JJJ	.	.	.	.
.	32AA-\LLL	.	.	.	.
.	32FF\	.	.	.	.
.	32DD\	.	.	.	.
.	32BBB-\JJJ	.	.	.	.
!LO:LB:g=original	!LO:LB:g=original	!	!	!	!
*	*	*	*v	*v	*
=12	=12	=12	=12	=12
4A-/	32A-\LLL	.	1r	.
!	!	!	!LO:LB:g=original	!
.	32BBB-\	.	.	.
.	32FF\	.	.	.
.	32BB-\JJJ	.	.	.
.	32D\LLL	.	.	.
.	32E-\	.	.	.
.	32F\	.	.	.
.	32G\JJJ	.	.	.
32A-/LLL	8A-\L	.	.	.
32f>\	.	.	.	.
32d>\	.	.	.	.
32B->\	.	.	.	.
32G/	8G\J	.	.	.
32F/	.	.	.	.
32D/	.	.	.	.
32BB-/JJJ	.	.	.	.
4.F/	16F\LL	.	.	.
.	32BBB-\L	.	.	.
.	32FFF\JJJ	.	.	.
.	32DD\LLL	.	.	.
.	32BBB-\	.	.	.
.	32FF\	.	.	.
.	32DD\JJJ	.	.	.
.	32BB-\LLL	.	.	.
.	32FF\	.	.	.
.	32D\	.	.	.
.	32BB-\JJJ	.	.	.
8F/	32F\LLL	.	.	.
.	32D\	.	.	.
.	32B-\	.	.	.
.	32F\JJJ	.	.	.
!LO:LB:g=original	!LO:LB:g=original	!	!	!
=13	=13	=13	=13	=13
*	*	*	*^	*
*	*	*below	*	*	*
8c/L	32c\LLL	>	1r	4ryy	.
.	32BB-\	.	.	.	.
.	32D\	.	.	.	.
.	32F\JJJ	.	.	.	.
8c/J	32c\LLL	.	.	.	.
.	32BB-\	.	.	.	.
.	32D\	.	.	.	.
.	32F\JJJ	.	.	.	.
32B-/LLL	8B-\L	.	.	8.r	.
32f>\	.	.	.	.	.
32d>\	.	.	.	.	.
32B->\	.	.	.	.	.
32A-/	8A-\J	.	.	.	.
32F/	.	.	.	.	.
32D/	.	]	.	16ryy	.
32BB-/JJJ	.	.	.	.	.
4A-/	32A-\LLL	.	.	2ryy	.
!	!	!	!	!LO:LB:g=original	!
.	32EE-\	.	.	.	.
.	32BB-\	.	.	.	.
.	32E-\	.	.	.	.
.	32G\	.	.	.	.
.	32B-\	.	.	.	.
.	32e-\	.	.	.	.
.	32g\JJJ	.	.	.	.
4G/	32G\LLL	.	.	.	.
!LO:LB:g=original	!	!	!	!	!
.	32g\	.	.	.	.
.	32e-\	.	.	.	.
.	32B-\	.	.	.	.
.	32G\	.	.	.	.
.	32E-\	.	.	.	.
.	32BB-\	.	.	.	.
.	32GG\JJJ	.	.	.	.
!	!LO:LB:g=original	!	!	!	!
*	*	*	*v	*v	*
=14	=14	=14	=14	=14
*	*	*above	*	*
4B-/	16B-\LL	f	1r	.
!	!	!	!LO:PB:g=original	!
.	32GG\L	.	.	.
.	32BB-\JJJ	.	.	.
.	32E-\LLL	.	.	.
.	32G\	.	.	.
.	32A-\	.	.	.
.	32An\JJJ	.	.	.
32B-/LLL	8B-\L	.	.	.
32b->\	.	.	.	.
32g>\	.	.	.	.
32e->\	.	.	.	.
32B-/	8B-\J	.	.	.
32G/	.	.	.	.
32E-/	.	.	.	.
32BB-/JJJ	.	.	.	.
4.c/	16c\LL	.	.	.
.	32FF\L	.	.	.
.	32C\JJJ	.	.	.
.	32E-\LLL	.	.	.
.	32A\	.	.	.
.	32c\	.	.	.
.	32e-\JJJ	.	.	.
.	32f>\LLL	.	.	.
.	32an>\	.	.	.
.	32f>\	.	.	.
.	32e->\JJJ	.	.	.
8c/	32c\LLL	.	.	.
!LO:PB:g=original	!	!	!	!
.	32A\	.	.	.
.	32F\	.	.	.
.	32E-\JJJ	.	.	.
!	!LO:PB:g=original	!	!	!
=15	=15	=15	=15	=15
!	!	!	!	!LO:HP:a:t=cres---cen---do.
8d/L	32d\LLL	.	1r	<
!	!	!	!LO:LB:g=original	!
.	32BB-\	.	.	.
.	32F\	.	.	.
.	32A-X\JJJ	.	.	.
8d/J	32d\LLL	.	.	.
.	32BB-\	.	.	.
.	32F\	.	.	.
.	32A-\JJJ	.	.	.
32c/LLL	8c\L	.	.	.
32a->\	.	.	.	.
32f>\	.	.	.	.
32e->\	.	.	.	.
32d/	8d\J	.	.	.
32B-/	.	.	.	.
32A-/	.	.	.	.
32F/JJJ	.	.	.	.
4e-/	16e-\LL	.	.	.
.	32EE-\L	.	.	.
.	32BB-\JJJ	.	.	.
.	32E-\LLL	.	.	.
.	32G\	.	.	.
.	32A-\	.	.	.
.	32An\JJJ	.	.	.
32B-/LLL	4B-\	.	.	.
32g>\	.	.	.	.
32e->\	.	.	.	.
32B->\	.	.	.	.
32G/	.	.	.	.
32E-/	.	.	.	.
32BB-/	.	.	.	.
32GG/JJJ	.	.	.	.
!LO:LB:g=original	!LO:LB:g=original	!	!	!
=16	=16	=16	=16	=16
*	*	*	*^	*
4e-/	16e-\LL	ff	1r	4ryy	.
.	32AA-\L	.	.	.	.
.	32E-\JJJ	.	.	.	.
.	32A-\LLL	.	.	.	.
.	32c\	.	.	.	.
.	32e-\	.	.	.	.
.	32a-\JJJ	.	.	.	.
*	*	*below	*	*	*
32d/LLL	8d\L	>	.	8ryy	.
32dd>\	.	.	.	.	.
32a->\	.	.	.	.	.
32f>\	.	.	.	.	.
32c/	8c\J	.	.	16ryy	.
32A-/	.	.	.	.	.
32E-/	.	]	.	16ryy	.
32C/JJJ	.	.	.	.	.
4.B-/	16B-\LL	.	.	2ryy	.
!	!	!	!	!LO:LB:g=original	!
.	32BB-\L	.	.	.	.
.	32E-\JJJ	.	.	.	.
.	32G\LLL	.	.	.	.
.	32B-\	.	.	.	.
.	32e-\	.	.	.	.
.	32g\JJJ	.	.	.	.
.	32b->\LLL	.	.	.	.
.	32g>\	.	.	.	.
.	32e->\	.	.	.	.
.	32B->\JJJ	.	.	.	.
8G/	32G\LLL	.	.	.	.
.	32E-\	.	.	.	.
.	32BB-\	.	.	.	.
.	32GG\JJJ	.	.	.	.
!LO:LB:g=original	!LO:LB:g=original	!	!	!	!
*	*	*	*v	*v	*
=17	=17	=17	=17	=17
*	*	*above	*	*
8c/L	32c\LLL	p	1r	.
!	!	!	!LO:LB:g=original	!
.	32BB-\	.	.	.
.	32D\	.	.	.
.	32F\JJJ	.	.	.
8c/J	32c\LLL	.	.	.
.	32BB-\	.	.	.
.	32D\	.	.	.
.	32F\JJJ	.	.	.
32B-/LLL	8B-\L	.	.	.
32f>\	.	.	.	.
32d>\	.	.	.	.
32B->\	.	.	.	.
32A-/	8A-\J	.	.	.
32F/	.	.	.	.
32D/	.	.	.	.
32BB-/JJJ	.	.	.	.
4A-/	16A-\LL	.	.	.
.	32BBn\L	.	.	.
.	32D\JJJ	.	.	.
.	32F\LLL	.	.	.
.	32A-\	.	.	.
.	32Bn\	.	.	.
.	32d\JJJ	.	.	.
4G/	16G\LL	.	.	.
.	32C\L	.	.	.
.	32E-\JJJ	.	.	.
.	32G\LLL	.	.	.
.	32c\	.	.	.
.	32e-\	.	.	.
.	32g\JJJ	.	.	.
!LO:LB:g=original	!LO:LB:g=original	!	!	!
=18	=18	=18	=18	=18
4B-/	16B-\LL	f	1r	.
!	!	!	!LO:LB:g=original	!
.	32GG\L	.	.	.
.	32BB-\JJJ	.	.	.
.	32E-\LLL	.	.	.
.	32G\	.	.	.
.	32A-\	.	.	.
.	32An\JJJ	.	.	.
32B-/LLL	8B-\L	.	.	.
32b->\	.	.	.	.
32g>\	.	.	.	.
32e->\	.	.	.	.
32B-/	8B-\J	.	.	.
32G/	.	.	.	.
32E-/	.	.	.	.
32BB-/JJJ	.	.	.	.
4.c/	16c\LL	.	.	.
.	32FF\L	.	.	.
.	32C\JJJ	.	.	.
.	32E-\LLL	.	.	.
.	32A\	.	.	.
.	32c\	.	.	.
.	32e-\JJJ	.	.	.
.	32f>\LLL	.	.	.
.	32an>\	.	.	.
.	32f>\	.	.	.
.	32e->\JJJ	.	.	.
8c/	32c\LLL	.	.	.
.	32A\	.	.	.
.	32F\	.	.	.
.	32E-\JJJ	.	.	.
!LO:LB:g=original	!LO:LB:g=original	!	!	!
=19	=19	=19	=19	=19
!	!	!	!	!LO:HP:a:t=crescendo.
8d/L	32d\LLL	.	1r	<
!	!	!	!LO:LB:g=original	!
.	32BB-\	.	.	.
.	32F\	.	.	.
.	32A-X\JJJ	.	.	.
8d/J	32d\LLL	.	.	.
.	32BB-\	.	.	.
.	32F\	.	.	.
.	32A-\JJJ	.	.	.
32c/LLL	8c\L	.	.	.
32a->\	.	.	.	.
32f>\	.	.	.	.
32e->\	.	.	.	.
32d/	8d\J	.	.	.
32B-/	.	.	.	.
32A-/	.	.	.	.
32F/JJJ	.	.	.	.
4e-/	16e-\LL	.	.	.
.	32EE-\L	.	.	.
.	32BB-\JJJ	.	.	.
.	32E-\LLL	.	.	.
.	32G\	.	.	.
.	32A-\	.	.	.
.	32An\JJJ	.	.	.
32B-/LLL	4B-\	.	.	.
32g>\	.	.	.	.
32e->\	.	.	.	.
32B->\	.	.	.	.
32G/	.	.	.	.
32E-/	.	.	.	.
32BB-/	.	.	.	.
32GG/JJJ	.	.	.	.
!LO:LB:g=original	!LO:LB:g=original	!	!	!
=20	=20	=20	=20	=20
*	*	*	*^	*
4e-/	16e-\LL	ff	1r	4ryy	.
!	!	!	!LO:LB:g=original	!	!
.	32AAn\L	.	.	.	.
.	32E-\JJJ	.	.	.	.
.	32F#X\LLL	.	.	.	.
.	32c\	.	.	.	.
.	32e-\	.	.	.	.
.	32f#X\JJJ	.	.	.	.
*	*	*	*	*	*above
32d/LLL	8d\L	.	.	4ryy	>
32dd>\	.	.	.	.	.
32an>\	.	.	.	.	.
32f#>\	.	.	.	.	.
32c/	8c\J	.	.	.	.
32A-/	.	.	.	.	.
32F#/	.	.	.	.	.
32E-/JJJ	.	.	.	.	.
4.B-/	16B-\LL	.	.	2ryy	]
.	32BBB-\L	.	.	.	.
.	32GGG\JJJ	.	.	.	.
.	32EE-\LLL	.	.	.	.
.	32BBB-\	.	.	.	.
.	32GG\	.	.	.	.
.	32EE-\JJJ	.	.	.	.
.	32BB-\LLL	.	.	.	.
.	32GG\	.	.	.	.
.	32E-\	.	.	.	.
.	32BB-\JJJ	.	.	.	.
8G/	32G\LLL	.	.	.	.
.	32E-\	.	.	.	.
.	32B-\	.	.	.	.
.	32G\JJJ	.	.	.	.
!LO:LB:g=original	!LO:LB:g=original	!	!	!	!
*	*	*	*v	*v	*
=21	=21	=21	=21	=21
!	!	!	!LO:TX:a:i:t=rallentando.	!
8c/L	32c\LLL	p	1r	.
!	!	!	!LO:LB:g=original	!
.	32BB-\	.	.	.
.	32D\	.	.	.
.	32F\JJJ	.	.	.
8B-/J	32B-\LLL	.	.	.
.	32BB-\	.	.	.
.	32D\	.	.	.
.	32F\JJJ	.	.	.
32A-/LLL	8A-\L	.	.	.
32f>\	.	.	.	.
32d>\	.	.	.	.
32B->\	.	.	.	.
32D/	8D\J	.	.	.
32BB-/	.	.	.	.
32AA-/	.	.	.	.
32FF/JJJ	.	.	.	.
4F/	16F\LL	.	.	.
.	32EE-\L	.	.	.
.	32BB-\JJJ	.	.	.
.	32BBn\LLL	.	.	.
.	32C\	.	.	.
.	32C#X\	.	.	.
.	32D\JJJ	.	.	.
8E-/	8r	.	.	.
8r;	8r	.	.	.
!LO:LB:g=original	!LO:LB:g=original	!	!	!
*v	*v	*	*	*
=22||	=22||	=22||	=22||
*	*	*^	*
!	!	!LO:TX:a:t=Var. Tempo 1.o	!	!
!	!	!LO:TX:a:i:t=grandioso.	!	!
*Xtuplet	*	*	*Xtuplet	*
48EEE-/LLL 48EE-	f	4B-/ 4e- 4g 4b-	8ryy	f
48BB-/	.	.	.	.
48E-/	.	.	.	.
48G/	.	.	.	.
48B-/	.	.	.	.
48e-/JJJ	.	.	.	.
8r	.	.	48g\LLL	.
.	.	.	48b-\	.
.	.	.	48ee-\	.
.	.	.	48gg\	.
.	.	.	48bb-\	.
.	.	.	48eee-\JJJ	.
!	!	!LO:TX:t=P:problem:przenośniki oktawowe usunięte przez problem w konwersji	!	!
*	*	*Xtuplet	*	*
*	*	*8va	*	*
8B-\L 8e- 8b-	.	48ggg\LLL	4.ryy	.
.	.	48aaa-\	.	.
.	.	48aaan\	.	.
.	.	48bbb-\	.	.
.	.	48bbbn\	.	.
.	.	48cccc\JJJ	.	.
8B--\J 8e- 8a-	.	48cccc#X\LLL	.	.
.	.	48dddd\	.	.
.	.	48eeee-\	.	.
.	.	48eeeen\	.	.
.	.	48ffff\	.	.
.	.	48eeee-X\JJJ	.	.
*	*	*X8va	*	*
48EEE-/LLL 48EE-	.	4G/ 4B-X 4e- 4g	.	.
48BB-/	.	.	.	.
48E-/	.	.	.	.
48G/	.	.	.	.
48B--/	.	.	.	.
48e-/JJJ	.	.	.	.
8r	.	.	48g\LLL	.
.	.	.	48b-\	.
.	.	.	48ee-\	.
.	.	.	48gg\	.
.	.	.	48bb-\	.
.	.	.	48eee-\JJJ	.
8r	.	48ggg\LLL	4ryy	.
*	*	*8va	*	*
.	.	48aaa-X\	.	.
.	.	48aaan\	.	.
.	.	48bbb-X\	.	.
.	.	48bbbn\	.	.
.	.	48ccccn\JJJ	.	.
8G\ 8B-- 8e- 8g	.	48cccc#X\LLL	.	.
.	.	48dddd\	.	.
.	.	48eeee-\	.	.
.	.	48eeeen\	.	.
.	.	48ffff\	.	.
.	.	48eeee-X\JJJ	.	.
*	*	*X8va	*	*
=23	=23	=23	=23	=23
48EEE-/LLL 48EE-	.	4B-/ 4e- 4g 4b-	8ryy	.
48BB-/	.	.	.	.
48E-/	.	.	.	.
48G/	.	.	.	.
48B-/	.	.	.	.
48e-/JJJ	.	.	.	.
12r	.	.	48g\LLL	.
.	.	.	48b-\	.
.	.	.	48ee-\	.
.	.	.	48gg\	.
*	*	*	*	*below
48A-\LLL 48a-	.	.	48bb-\	<
48G\JJJ 48g	.	.	48eee-\JJJ	.
*	*	*8va	*	*
8F\L 8B- 8f	.	48ggg\LLL	4.ryy	.
.	.	48aaa-\	.	.
.	.	48aaan\	.	.
.	.	48bbb-\	.	.
.	.	48bbbn\	.	.
.	.	48cccc\JJJ	.	.
8G\J 8B- 8g	.	48cccc#X\LLL	.	.
.	.	48dddd\	.	[
.	.	48eeee-\	.	.
.	.	48eeeen\	.	.
.	.	48ffff\	.	.
.	.	48eeee-X\JJJ	.	.
*	*	*X8va	*	*
!	!	!	!	!LO:DY:a
48FFF/LLL 48FF	.	4B-X/ 4e- 4b-X	.	sf
48BB-/	.	.	.	.
48D/	.	.	.	.
48F/	.	.	.	.
48A-/	.	.	.	.
48B-/JJJ	.	.	.	.
8ryy	.	.	48d\LLL	.
.	.	.	48f\	.
.	.	.	48a-X\	.
.	.	.	48b-\	.
.	.	.	48dd\	.
.	.	.	48ff\JJJ	.
4A-/ 4B- 4d 4a-	.	48aa-\LLL	4ryy	.
!	!	!	!	!LO:LB:g=original
.	.	48aan\	.	.
.	.	48bb-\	.	.
.	.	48bbn\	.	.
.	.	48ccc\	.	.
.	.	48ccc#X\JJJ	.	.
.	.	48ddd\LLL	.	.
.	.	48eee-\	.	.
.	.	48eeen\	.	.
.	.	48fff\	.	.
.	.	48ggg\	.	.
.	.	48fff\JJJ	.	.
!LO:LB:g=original	!	!LO:LB:g=original	!	!
=24  	=24  	=24  	=24  	=24
48BBB-\LLL	.	4A-/ 4B- 4d 4a-	2ryy	.
48FF\	.	.	.	.
48BB-\	.	.	.	.
48D\	.	.	.	.
48F\	.	.	.	.
48B-\JJJ	.	.	.	.
48d\LLL	.	.	.	.
48f\	.	.	.	.
48a-\	.	.	.	.
48b-\	.	.	.	.
48dd\	.	.	.	.
48ff\JJJ	.	.	.	.
8A-\L 8B- 8d 8a-	.	48aa-\LLL	.	.
.	.	48aan\	.	.
.	.	48bb-\	.	.
.	.	48bbn\	.	.
.	.	48ccc\	.	.
.	.	48ccc#X\JJJ	.	.
8G\J 8B- 8d 8g	.	48ddd\LLL	.	.
.	.	48eee-\	.	.
.	.	48eeen\	.	.
.	.	48fff\	.	.
.	.	48ggg\	.	.
.	.	48fff\JJJ	.	.
48BBB-\LLL	.	4.F/ 4.B- 4.d 4.f	8ryy	.
48FF\	.	.	.	.
48BB-\	.	.	.	.
48D\	.	.	.	.
48F\	.	.	.	.
48B-\JJJ	.	.	.	.
8r	.	.	48d\LLL	.
.	.	.	48f\	.
.	.	.	48a-X\	.
.	.	.	48b-X\	.
.	.	.	48dd\	.
.	.	.	48ff\JJJ	.
8r	.	.	48aa-X\LLL	.
.	.	.	48aan\	.
.	.	.	48bb-X\	.
.	.	.	48bbn\	.
.	.	.	48cccn\	.
.	.	.	48ccc#X\JJJ	.
8F/ 8B- 8d 8f	.	48ddd\LLL	8ryy	.
.	.	48eee-X\	.	.
.	.	48eeen\	.	.
.	.	48fff\	.	.
.	.	48ggg\	.	.
.	.	48fff\JJJ	.	.
!LO:PB:g=original	!	!LO:PB:g=original	!	!LO:PB:g=original
=25  	=25  	=25  	=25  	=25  
!	!	!LO:TX:t=P:problem:łączenie przez systemy, mixed beam	!	!
48BBB-/LLL	.	8c\L 8f 8a- 8cc	8ryy	.
48FF/	.	.	.	.
48BB-/	.	.	.	.
48D/	.	.	.	.
48F/	.	.	.	.
48B-/JJJ	.	.	.	.
*	*	*	*	*above
8r	.	8c\J 8cc	48r	>
.	.	.	48f/LLL	.
.	.	.	48a-/	.
.	.	.	48b-/	.
.	.	.	48dd/	.
.	.	.	48ff/JJJ	.
*clefG2	*	*	*	*
8B-/L 8d 8f 8b-	.	48aa-\LLL	4ryy	.
.	.	48aan\	.	.
.	.	48bb-\	.	.
.	.	48bbn\	.	.
.	.	48ccc\	.	.
.	.	48ccc#X\JJJ	.	.
8A-/J 8d 8f 8a-	.	48ddd\LLL	.	.
.	.	48eee-\	.	.
.	.	48eeen\	.	.
.	.	48fff\	.	]
.	.	48ggg\	.	.
.	.	48fff\JJJ	.	.
*clefF4	*	*	*	*
!	!	!	!	!LO:DY:a
48EEE-/LLL 48EE-	.	4A-X/ 4B-X 4e-X 4a-X	8ryy	p
48BB-/	.	.	.	.
48E-/	.	.	.	.
48G/	.	.	.	.
48B-/	.	.	.	.
48e-/JJJ	.	.	.	.
!	!	!	!	!LO:DY:a
8r	.	.	48g\LLL	p
.	.	.	48b-\	.
.	.	.	48ee-\	.
.	.	.	48gg\	.
.	.	.	48bb-X\	.
.	.	.	48eee-X\JJJ	.
*	*	*8va	*	*
4G\ 4B- 4e- 4g	.	48ggg\LLL	4ryy	.
!LO:LB:g=original	!	!	!LO:LB:g=original	!LO:LB:g=original
.	.	48aaa-\	.	.
.	.	48aaan\	.	.
.	.	48bbb-\	.	.
.	.	48bbbn\	.	.
.	.	48cccc#X\JJJ	.	.
.	.	48cccc#\LLL	.	.
.	.	48dddd\	.	.
.	.	48eeee-\	.	.
.	.	48eeeen\	.	.
.	.	48ffff\	.	.
.	.	48eeee-X\JJJ	.	.
!	!	!LO:LB:g=original	!	!
*	*	*X8va	*	*
=26	=26	=26	=26	=26
*	*	*	*	*below
48EEE-/LLL 48EE-	.	4B-/ 4e- 4g 4b-	8ryy	f
48BB-/	.	.	.	.
48E-/	.	.	.	.
48G/	.	.	.	.
48B-/	.	.	.	.
48e-/JJJ	.	.	.	.
8r	.	.	48g\LLL	.
.	.	.	48b-\	.
.	.	.	48ee-\	.
.	.	.	48gg\	.
.	.	.	48bb-\	.
.	.	.	48eee-\JJJ	.
*	*	*8va	*	*
8B-\L 8e- 8b-	.	48ggg\LLL	4ryy	.
.	.	48aaa-\	.	.
.	.	48aaan\	.	.
.	.	48bbb-\	.	.
.	.	48bbbn\	.	.
.	.	48cccc\JJJ	.	.
8A-\J 8e- 8a-	.	48cccc#X\LLL	.	.
.	.	48dddd\	.	.
.	.	48eeee-\	.	.
.	.	48eeeen\	.	.
.	.	48ffff\	.	.
.	.	48eeee-X\JJJ	.	.
*	*	*X8va	*	*
48EEE-/LLL 48EE-	.	4.G/ 4.B-X 4.e- 4.g	8ryy	.
48BB-/	.	.	.	.
48E-/	.	.	.	.
48G/	.	.	.	.
48B-/	.	.	.	.
48e-/JJJ	.	.	.	.
8r	.	.	48g\LLL	.
.	.	.	48b-\	.
.	.	.	48ee-\	.
.	.	.	48gg\	.
.	.	.	48bb-\	.
.	.	.	48eee-\JJJ	.
*	*	*8va	*8va	*
8r	.	.	48ggg\LLL	.
.	.	.	48aaa-X\	.
.	.	.	48aaan\	.
.	.	.	48bbb-X\	.
.	.	.	48bbbn\	.
.	.	.	48ccccn\JJJ	.
8G\ 8B- 8e- 8g	.	48cccc#X\LLL	8ryy	.
.	.	48dddd\	.	.
.	.	48eeee-\	.	.
.	.	48eeeen\	.	.
.	.	48ffff\	.	.
.	.	48eeee-X\JJJ	.	.
!LO:LB:g=original	!	!LO:LB:g=original	!LO:LB:g=original	!
*	*	*X8va	*X8va	*
=27	=27	=27	=27	=27
48EEE-/LLL 48EE-	.	4G/ 4B- 4e- 4g	8ryy	.
48BB-/	.	.	.	.
48E-/	.	.	.	.
48G/	.	.	.	.
48B-/	.	.	.	.
48e-/JJJ	.	.	.	.
12r	.	.	48g\LLL	.
.	.	.	48b-\	.
.	.	.	48ee-\	.
.	.	.	48gg\	.
48A-\LLL 48a-	.	.	48bb-\	.
48G\JJJ 48g	.	.	48eee-\JJJ	.
*	*	*8va	*	*
8F\L 8B- 8f	.	48ggg\LLL	4ryy	<
.	.	48aaa-\	.	.
.	.	48aaan\	.	.
.	.	48bbb-\	.	.
.	.	48bbbn\	.	.
.	.	48cccc\JJJ	.	.
8G\J 8B- 8g	.	48cccc#X\LLL	.	.
.	.	48dddd\	.	[
.	.	48eeee-\	.	.
.	.	48eeeen\	.	.
.	.	48ffff\	.	.
.	.	48eeee-X\JJJ	.	.
*	*	*X8va	*	*
!	!	!	!	!LO:DY:a
48FFF/LLL 48FF	.	4B-X/ 4d 4b-X	8ryy	sf
48BB-/	.	.	.	.
48D/	.	.	.	.
48F/	.	.	.	.
48A-/	.	.	.	.
48B-/JJJ	.	.	.	.
8r	.	.	48d\LLL	.
.	.	.	48f\	.
.	.	.	48a-X\	.
.	.	.	48b-\	.
.	.	.	48dd\	.
.	.	.	48ff\JJJ	.
4A-\ 4B- 4d 4a-	.	48aa-\LLL	4ryy	.
!LO:LB:g=original	!	!	!LO:LB:g=original	!LO:LB:g=original
.	.	48aan\	.	.
.	.	48bb-\	.	.
.	.	48bbn\	.	.
.	.	48ccc\	.	.
.	.	48ccc#X\JJJ	.	.
.	.	48ddd\LLL	.	.
.	.	48eee-\	.	.
.	.	48eeen\	.	.
.	.	48fff\	.	.
.	.	48ggg\	.	.
.	.	48fff\JJJ	.	.
!	!	!LO:LB:g=original	!	!
=28	=28	=28	=28	=28
48BBB-/LLL	.	4A-/ 4B- 4d 4a-	8rddyy	.
48FF/	.	.	.	.
48BB-/	.	.	.	.
48D/	.	.	.	.
48F/	.	.	.	.
48B-/JJJ	.	.	.	.
8r	.	.	48d\LLL	.
.	.	.	48f\	.
.	.	.	48a-\	.
.	.	.	48b-\	.
.	.	.	48dd\	.
.	.	.	48ff\JJJ	.
8A-\L 8B- 8d 8a-	.	48aa-\LLL	4ryy	.
.	.	48aan\	.	.
.	.	48bb-\	.	.
.	.	48bbn\	.	.
.	.	48ccc\	.	.
.	.	48ccc#X\JJJ	.	.
8G\J 8B- 8d 8g	.	48ddd\LLL	.	.
.	.	48eee-\	.	.
.	.	48eeen\	.	.
.	.	48fff\	.	.
.	.	48ggg\	.	.
.	.	48fff\JJJ	.	.
48BBB-\LLL	.	4.F/ 4.B- 4.d 4.f	8ryy	.
48FF\	.	.	.	.
48BB-\	.	.	.	.
48D\	.	.	.	.
48F\	.	.	.	.
48B-\JJJ	.	.	.	.
8r	.	.	48d\LLL	.
.	.	.	48f\	.
.	.	.	48a-X\	.
.	.	.	48b-X\	.
.	.	.	48dd\	.
.	.	.	48ff\JJJ	.
8r	.	.	48aa-X\LLL	.
.	.	.	48aan\	.
.	.	.	48bb-X\	.
.	.	.	48bbn\	.
.	.	.	48cccn\	.
.	.	.	48ccc#X\JJJ	.
8F\ 8B- 8d 8f	.	48ddd\LLL	8ryy	.
!LO:LB:g=original	!	!	!LO:LB:g=original	!LO:LB:g=original
.	.	48eee-X\	.	.
.	.	48eeen\	.	.
.	.	48fff\	.	.
.	.	48ggg\	.	.
.	.	48fff\JJJ	.	.
!	!	!LO:LB:g=original	!	!
=29	=29	=29	=29	=29
!	!	!LO:TX:t=P:problem:łączenie przez systemy, mixed beam	!	!
48BBB-/LLL	.	8c\L 8f 8a- 8cc	8ryy	.
48FF/	.	.	.	.
48BB-/	.	.	.	.
48D/	.	.	.	.
48F/	.	.	.	.
48B-/JJJ	.	.	.	.
*	*	*	*	*above
8r	.	8c\J 8cc	48r	>
.	.	.	48f/LLL	.
.	.	.	48a-/	.
.	.	.	48b-/	.
.	.	.	48dd/	.
.	.	.	48ff/JJJ	.
*clefG2	*	*	*	*
8B-/L 8d 8f 8b-	.	48aa-\LLL	4ryy	.
.	.	48aan\	.	.
.	.	48bb-\	.	.
.	.	48bbn\	.	.
.	.	48ccc\	.	.
.	.	48ccc#X\JJJ	.	.
8A-/J 8d 8f 8a-	.	48ddd\LLL	.	.
.	.	48eee-\	.	.
.	.	48eeen\	.	.
.	.	48fff\	.	]
.	.	48ggg\	.	.
.	.	48fff\JJJ	.	.
*clefF4	*	*	*	*
!	!	!	!	!LO:DY:a
48EEE-/LLL 48EE-	.	4A-X/ 4B-X 4e-X 4a-X	8ryy	p
48BB-/	.	.	.	.
48E-/	.	.	.	.
48G/	.	.	.	.
48B-/	.	.	.	.
48e-/JJJ	.	.	.	.
8r	.	.	48g\LLL	.
.	.	.	48b-\	.
.	.	.	48ee-\	.
.	.	.	48gg\	.
.	.	.	48bb-X\	.
.	.	.	48eee-X\JJJ	.
*	*	*8va	*	*
4G\ 4B- 4e- 4g	.	48ggg\LLL	4ryy	.
!LO:LB:g=original	!	!	!LO:LB:g=original	!LO:LB:g=original
.	.	48aaa-\	.	.
.	.	48aaan\	.	.
.	.	48bbb-\	.	.
.	.	48bbbn\	.	.
.	.	48cccc\JJJ	.	.
.	.	48cccc#X\LLL	.	.
.	.	48dddd\	.	.
.	.	48eeee-\	.	.
.	.	48eeeen\	.	.
.	.	48ffff\	.	.
.	.	48eeee-X\JJJ	.	.
!	!	!LO:LB:g=original	!	!
*	*	*X8va	*	*
=30	=30	=30	=30	=30
48GGG/LLL 48GG	.	4B-/ 4e- 4b-	8ryy	f
48BB-/	.	.	.	.
48E-/	.	.	.	.
48G/	.	.	.	.
48B-/	.	.	.	.
48e-/JJJ	.	.	.	.
8r	.	.	48g\LLL	.
.	.	.	48b-\	.
.	.	.	48ee-\	.
.	.	.	48gg\	.
.	.	.	48bb-\	.
.	.	.	48eee-\JJJ	.
*clefG2	*	*8va	*	*
8B-/L 8e- 8b-	.	48ggg\LLL	4ryy	.
.	.	48aaa-\	.	.
.	.	48aaan\	.	.
.	.	48bbb-\	.	.
.	.	48bbbn\	.	.
.	.	48cccc\JJJ	.	.
8B-/J 8e- 8b-	.	48cccc#X\LLL	.	.
.	.	48dddd\	.	.
.	.	48eeee-\	.	.
.	.	48eeeen\	.	.
.	.	48ffff\	.	.
.	.	48eeee-X\JJJ	.	.
*clefF4	*	*X8va	*	*
32FFF/LLL 32FF	.	4c/ 4e- 4cc	8ryy	.
32C/	.	.	.	.
32E-/	.	.	.	.
32An/JJJ	.	.	.	.
!LO:TX:t=P:problem:pauza przesunięta o 2 32-jki	!	!	!	!
8r	.	.	64e-\LLLL	.
.	.	.	64f\	.
.	.	.	64an\	.
.	.	.	64cc\	.
.	.	.	64ee-\	.
.	.	.	64ff\	.
.	.	.	64aan\	.
.	.	.	64ccc\JJJJ	.
*clefG2	*	*8va	*	*
8c/L 8e- 8f 8cc	.	48eee-\LLL	4ryy	.
.	.	48eeen\	.	.
.	.	48fff\	.	.
.	.	48fff#X\	.	.
.	.	48ggg\	.	.
.	.	48aaa-X\JJJ	.	.
8c/J 8e- 8f 8cc	.	48aaan\LLL	.	.
!LO:LB:g=original	!	!	!LO:LB:g=original	!
.	.	48bbb-X\	.	.
.	.	48bbbn\	.	.
.	.	48ccccn\	.	.
.	.	48dddd\	.	.
.	.	48cccc\JJJ	.	.
!	!	!LO:LB:g=original	!	!
*clefF4	*	*X8va	*	*
=31	=31	=31	=31	=31
!	!	!	!	!LO:HP:t=cres-cen-do
48BBB-/LLL	.	4.d/ 4.f 4.a-X 4.dd	8ryy	<
48FF/	.	.	.	.
48BB-/	.	.	.	.
48D/	.	.	.	.
48F/	.	.	.	.
48B-/JJJ	.	.	.	.
12r	.	.	48d\LLL	.
.	.	.	48f\	.
.	.	.	48b-\	.
.	.	.	48dd\	.
!LO:TX:t=P:problem:usunięty klucz wiolinowy przez problem w konwersji	!	!	!	!
*clefG2	*	*	*	*
48e-/LLL 48ee-	.	.	48ff\	.
48d/JJJ 48dd	.	.	48bb-\JJJ	.
*	*	*8va	*8va	*
8c/L 8f 8a- 8cc	.	.	48ddd\LLL	.
.	.	.	48eee-\	.
.	.	.	48eeen\	.
.	.	.	48fff\	.
.	.	.	48fff#X\	.
.	.	.	48ggg\JJJ	.
8d/J 8f 8a- 8dd	.	48aaa-\LLL	8ryy	.
.	.	48aaan\	.	.
.	.	48bbb-\	.	.
.	.	48bbbn\	.	.
.	.	48cccc\	.	.
.	.	48bbb-X\JJJ	.	.
*clefF4	*	*X8va	*X8va	*
48EEE-/LLL 48EE-	.	4e-X/ 4g 4ee-	8ryy	.
48BB-/	.	.	.	.
48E-/	.	.	.	.
48G/	.	.	.	.
48B-/	.	.	.	.
48e-/JJJ	.	.	.	.
8r	.	.	48g\LLL	.
.	.	.	48b-\	.
.	.	.	48ee-\	.
.	.	.	48gg\	.
.	.	.	48bb-\	.
.	.	.	48eee-X\JJJ	.
*clefG2	*	*8va	*	*
4B-/ 4e- 4b-	.	48ggg\LLL	4ryy	.
!LO:LB:g=original	!	!	!LO:LB:g=original	!LO:LB:g=original
.	.	48aaa-X\	.	.
.	.	48aaan\	.	.
.	.	48bbb-\	.	.
.	.	48bbbn\	.	.
.	.	48cccc\JJJ	.	.
.	.	48cccc#X\LLL	.	.
.	.	48dddd\	.	.
.	.	48eeee-\	.	.
.	.	48eeeen\	.	.
.	.	48ffff\	.	.
.	.	48eeee-X\JJJ	.	.
!	!	!LO:LB:g=original	!	!
*clefF4	*	*X8va	*	*
=32	=32	=32	=32	=32
!	!	!	!	!LO:DY:a
48AAA-/LLL	.	4e-/ 4a- 4cc 4ee-	8ryy	ff
48EE-/	.	.	.	.
48AA-/	.	.	.	.
48C/	.	.	.	.
48E-/	.	.	.	.
48A-/JJJ	.	.	.	.
8r	.	.	48e-\LLL	.
.	.	.	48a-\	.
.	.	.	48cc\	.
.	.	.	48ee-\	.
.	.	.	48aa-\	.
.	.	.	48ccc\JJJ	.
*clefG2	*	*8va	*	*
8e-/L 8a- 8dd	.	48eee-\LLL	4ryy	.
.	.	48eeen\	.	.
.	.	48fff\	.	.
.	.	48fff#X\	.	.
.	.	48ggg\	.	.
.	.	48aaa-\JJJ	.	.
8e-/J 8a- 8cc	.	48aaan\LLL	.	.
.	.	48bbb-\	.	.
.	.	48bbbn\	.	.
.	.	48cccc\	.	.
.	.	48dddd\	.	.
.	.	48cccc\JJJ	.	.
*clefF4	*	*X8va	*	*
48BBB-/LLL	.	4.B-X/ 4.e-X 4.g 4.b-X	8ryy	.
48EE-/	.	.	.	.
48GG/	.	.	.	.
48BB-/	.	.	.	.
48E-/	.	.	.	.
48G/JJJ	.	.	.	.
8r	.	.	48g\LLL	.
.	.	.	48b-\	.
.	.	.	48ee-\	.
.	.	.	48gg\	.
.	.	.	48bb-\	.
.	.	.	48eee-X\JJJ	.
*	*	*8va	*8va	*
8r	.	.	48ggg\LLL	.
.	.	.	48aaa-X\	.
.	.	.	48aaan\	.
.	.	.	48bbb-X\	.
.	.	.	48bbbn\	.
.	.	.	48cccc\JJJ	.
*clefG2	*	*	*	*
8G/ 8B- 8e- 8g	.	48cccc#X\LLL	8ryy	.
.	.	48dddd\	.	.
.	.	48eeee-\	.	.
.	.	48eeeen\	.	.
.	.	48ffff\	.	.
.	.	48eeee-X\JJJ	.	.
!LO:LB:g=original	!	!LO:LB:g=original	!	!LO:LB:g=original
*clefF4	*	*X8va	*X8va	*
=33	=33	=33	=33	=33
!	!	!LO:TX:t=P:problem:łączenie przez systemy, mixed beam	!	!LO:DY:a
48BBB-/LLL	.	8c\L 8f 8a- 8cc	8ryy	p
48FF/	.	.	.	.
48BB-/	.	.	.	.
48D/	.	.	.	.
48F/	.	.	.	.
48B-/JJJ	.	.	.	.
8r	.	8c\J 8cc	48r	.
.	.	.	48f/LLL	.
.	.	.	48a-/	.
.	.	.	48b-/	.
.	.	.	48dd/	.
.	.	.	48ff/JJJ	.
*clefG2	*	*	*	*
8B-/L 8d 8f 8b-	.	48aa-\LLL	4ryy	.
.	.	48aan\	.	.
.	.	48bb-\	.	.
.	.	48bbn\	.	.
.	.	48ccc\	.	.
.	.	48ccc#X\JJJ	.	.
8A-/J 8d 8f 8a-	.	48ddd\LLL	.	.
.	.	48eee-\	.	.
.	.	48eeen\	.	.
.	.	48fff\	.	.
.	.	48ggg\	.	.
.	.	48fff\JJJ	.	.
*clefF4	*	*	*	*
48BBBn/LLL	.	4A-X/ 4d 4f 4a-X	8ryy	.
48FF/	.	.	.	.
48AA-/	.	.	.	.
48D/	.	.	.	.
48F/	.	.	.	.
48A-/JJJ	.	.	.	.
8r	.	.	48Bn\LLL	.
.	.	.	48d\	.
.	.	.	48f\	.
.	.	.	48a-\	.
.	.	.	48bn\	.
.	.	.	48dd\JJJ	.
48CC/LLL	.	4G/ 4cn 4e-X 4g	8ryy	.
!	!	!LO:LB:g=original	!	!LO:LB:g=original
48EE-/	.	.	.	.
48GG/	.	.	.	.
48C/	.	.	.	.
48E-/	.	.	.	.
48G/JJJ	.	.	.	.
8r	.	.	48c\LLL	.
!LO:LB:g=original	!	!	!	!
.	.	.	48e-\	.
.	.	.	48g\	.
.	.	.	48cc\	.
.	.	.	48ee-\	.
.	.	.	48gg\JJJ	.
!	!	!	!LO:LB:g=original	!
=34	=34	=34	=34	=34
48GGG/LLL 48GG	.	4B-/ 4e- 4b-	8ryy	.
48BB-/	.	.	.	.
48E-/	.	.	.	.
48G/	.	.	.	.
48B-/	.	.	.	.
48e-/JJJ	.	.	.	.
8r	.	.	48g\LLL	.
.	.	.	48b-\	.
.	.	.	48ee-\	.
.	.	.	48gg\	.
.	.	.	48bb-\	.
.	.	.	48eee-\JJJ	.
*clefG2	*	*8va	*	*
8B-/L 8e- 8b-	.	48ggg\LLL	4ryy	.
.	.	48aaa-\	.	.
.	.	48aaan\	.	.
.	.	48bbb-\	.	.
.	.	48bbbn\	.	.
.	.	48cccc\JJJ	.	.
8B-/J 8e- 8b-	.	48cccc#X\LLL	.	.
.	.	48dddd\	.	.
.	.	48eeee-\	.	.
.	.	48eeeen\	.	.
.	.	48ffff\	.	.
.	.	48eeee-X\JJJ	.	.
*clefF4	*	*X8va	*	*
32FFF/LLL 32FF	.	4c/ 4e- 4cc	8ryy	.
32C/	.	.	.	.
32E-/	.	.	.	.
32An/JJJ	.	.	.	.
8r	.	.	64e-\LLLL	.
.	.	.	64f\	.
.	.	.	64an\	.
.	.	.	64cc\	.
.	.	.	64ee-\	.
.	.	.	64ff\	.
.	.	.	64aan\	.
.	.	.	64ccc\JJJJ	.
*clefG2	*	*8va	*	*
8c/L 8e- 8f 8cc	.	48eee-\LLL	4ryy	.
.	.	48eeen\	.	.
.	.	48fff\	.	.
.	.	48fff#X\	.	.
.	.	48ggg\	.	.
.	.	48aaa-X\JJJ	.	.
8c/J 8e- 8f 8cc	.	48aaan\LLL	.	.
!LO:PB:g=original	!	!	!	!
.	.	48bbb-X\	.	.
.	.	48bbbn\	.	.
.	.	48ccccn\	.	.
.	.	48dddd\	.	.
.	.	48cccc\JJJ	.	.
!	!	!LO:PB:g=original	!	!
*clefF4	*	*X8va	*	*
=35	=35	=35	=35	=35
!	!	!	!	!LO:HP:t=cres--cen--do.
48BBB-/LLL	.	4.d/ 4.f 4.a- 4.dd	8ryy	<
48FF/	.	.	.	.
48BB-/	.	.	.	.
48D/	.	.	.	.
48F/	.	.	.	.
48B-/JJJ	.	.	.	.
12r	.	.	48d\LLL	.
.	.	.	48f\	.
.	.	.	48b-\	.
.	.	.	48dd\	.
*clefG2	*	*	*	*
48e-/LLL 48ee-	.	.	48ff\	.
48d/JJJ 48dd	.	.	48bb-\JJJ	.
*	*	*8va	*8va	*
8c/L 8f 8a- 8cc	.	.	48ddd\LLL	.
.	.	.	48eee-\	.
.	.	.	48eeen\	.
.	.	.	48fff\	.
.	.	.	48fff#X\	.
.	.	.	48ggg\JJJ	.
8d/J 8f 8a- 8dd	.	48aaa-\LLL	8ryy	.
.	.	48aaan\	.	.
.	.	48bbb-\	.	.
.	.	48bbbn\	.	.
.	.	48cccc\	.	.
.	.	48bbb-X\JJJ	.	.
*clefF4	*	*X8va	*X8va	*
48EEE-/LLL 48EE-	.	4e-X/ 4g 4ee-	8ryy	.
48BB-/	.	.	.	.
48E-/	.	.	.	.
48G/	.	.	.	.
48B-/	.	.	.	.
48e-/JJJ	.	.	.	.
8r	.	.	48g\LLL	.
.	.	.	48b-\	.
.	.	.	48ee-\	.
.	.	.	48gg\	.
.	.	.	48bb-\	.
.	.	.	48eee-X\JJJ	.
*clefG2	*	*8va	*	*
8B-/L 8e- 8b-	.	48ggg\LLL	4ryy	.
.	.	48aaa-X\	.	.
.	.	48aaan\	.	.
.	.	48bbb-\	.	.
.	.	48bbbn\	.	.
.	.	48cccc\JJJ	.	.
8B-/J 8e- 8b-	.	48cccc#X\LLL	.	.
!LO:LB:g=original	!	!	!	!
.	.	48dddd\	.	.
.	.	48eeee-\	.	.
.	.	48eeeen\	.	.
.	.	48ffffn\	.	.
.	.	48eeee-X\JJJ	.	.
!	!	!LO:LB:g=original	!	!
*clefF4	*	*X8va	*	*
=36	=36	=36	=36	=36
*	*	*	*	*below
48AAAn/LLL 48AAn	.	4e-/ 4f#X 4cc 4ee-	8ryy	ff
48E-/	.	.	.	.
48F#X/	.	.	.	.
48c/JJJ	.	.	.	.
24r	.	.	.	.
8r	.	.	64e-\LLLL	.
.	.	.	64f#\	.
.	.	.	64an\	.
.	.	.	64cc\	.
.	.	.	64ee-\	.
.	.	.	64ff#X\	.
.	.	.	64aan\	.
.	.	.	64ccc\JJJJ	.
*clefG2	*	*8va	*	*
8e-/L 8f#X 8dd	.	48eee-\LLL	4ryy	.
.	.	48eeen\	.	.
.	.	48fff\	.	.
.	.	48fff#X\	.	.
.	.	48ggg\	.	.
.	.	48aaa-\JJJ	.	.
8e-/J 8f# 8cc	.	48aaan\LLL	.	.
.	.	48bbb-\	.	.
.	.	48bbbn\	.	.
.	.	48cccc\	.	.
.	.	48dddd\	.	.
.	.	48cccc\JJJ	.	.
*clefF4	*	*X8va	*	*
48BBB-/LLL	.	4B-X/ 4e-X 4g 4b-X	8ryy	f
48EE-/	.	.	.	.
48GG/	.	.	.	.
48BB-/	.	.	.	.
48E-/	.	.	.	.
48G/JJJ	.	.	.	.
8r	.	.	48g\LLL	.
.	.	.	48b-\	.
.	.	.	48ee-\	.
.	.	.	48gg\	.
.	.	.	48bb-\	.
.	.	.	48eee-X\JJJ	.
*clefG2	*	*8va	*	*
8G/L 8B- 8e- 8g	.	48ggg\LLL	4ryy	.
.	.	48aaa-X\	.	.
.	.	48aaan\	.	.
.	.	48bbb-X\	.	.
.	.	48bbbn\	.	.
.	.	48cccc\JJJ	.	.
8G/J 8B- 8e- 8g	.	48cccc#X\LLL	.	.
!LO:LB:g=original	!	!	!	!
.	.	48dddd\	.	.
.	.	48eeee-\	.	.
.	.	48eeeen\	.	.
.	.	48ffff\	.	.
.	.	48eeee-X\JJJ	.	.
!	!	!LO:LB:g=original	!	!
*clefF4	*	*X8va	*	*
=37	=37	=37	=37	=37
!	!	!LO:TX:t=P:problem:łączenie przez systemy, mixed beam	!	!
48BBB-/LLL	.	8c\L 8f 8a- 8cc	8ryy	.
48FF/	.	.	.	.
48BB-/	.	.	.	.
48D/	.	.	.	.
48F/	.	.	.	.
48B-/JJJ	.	.	.	.
8r	.	8B-\J 8b-	48r	.
.	.	.	48f/LLL	.
.	.	.	48a-/	.
.	.	.	48b-/	.
.	.	.	48dd/	.
.	.	.	48ff/JJJ	.
8CC/L 8DD 8FF 8C	.	48aa-\LLL	4ryy	.
.	.	48aan\	.	.
.	.	48bb-\	.	.
.	.	48bbn\	.	.
.	.	48ccc\	.	.
.	.	48ccc#X\JJJ	.	.
*clefF4	*	*	*	*
8D/J 8F 8A- 8d	.	48ddd\LLL	.	.
.	.	48eee-\	.	.
.	.	48eeen\	.	.
.	.	48fff\	.	.
.	.	48ggg\	.	.
.	.	48fff\JJJ	.	.
!	!	!	!	!LO:DY:b
48BBB-\LLL	.	2F</ 2A-< 2f<	2ryy	sf
!	!	!LO:LB:g=original	!	!
48AAAn\	.	.	.	.
48BBB-\	.	.	.	.
48BBBn\	.	.	.	.
48CC\	.	.	.	.
48CC#X\JJJ	.	.	.	.
48DD\LLL	.	.	.	.
48EE-\	.	.	.	.
48EEn\	.	.	.	.
48FF\	.	.	.	.
48FF#X\	.	.	.	.
48GG\JJJ	.	.	.	.
!LO:TX:a:i:t=rall.	!	!	!	!
48AA-X\LLL	.	.	.	.
48AAn\	.	.	.	.
48BB-X\	.	.	.	.
48BBn\	.	.	.	.
48Cn\	.	.	.	.
48C#X\JJJ	.	.	.	.
48D\LLL	.	.	.	.
48E-X\	.	.	.	.
48En\	.	.	.	.
48Fn\	.	.	.	.
48G\	.	.	.	.
48F\JJJ	.	.	.	.
!LO:LB:g=original	!	!	!	!
=38	=38	=38	=38	=38
48EE-\LLL	.	4G/ 4e-	8ryy	.
48BB-\	.	.	.	.
48E-\	.	.	.	.
48G\	.	.	.	.
48B-\	.	.	.	.
48e-\JJJ	.	.	.	.
8r	.	.	48g\LLL	.
.	.	.	48b-\	.
.	.	.	48ee-\	.
.	.	.	48gg\	.
.	.	.	48bb-\	.
.	.	.	48eee-\JJJ	.
*	*	*8va	*	*
4r	.	48ggg\LLL	4ryy	.
.	.	48aaa-\	.	.
.	.	48aaan\	.	.
.	.	48bbb-\	.	.
.	.	48bbbn\	.	.
.	.	48cccc\JJJ	.	.
.	.	48cccc#X\LLL	.	.
.	.	48dddd\	.	.
.	.	48eeee-\	.	.
.	.	48eeeen\	.	.
.	.	48ffff\	.	.
.	.	48eeee-X\JJJ	.	.
*	*	*X8va	*	*
48EE-\LLL	.	4G</ 4e-<	8ryy	.
48BB-\	.	.	.	.
48E-\	.	.	.	.
48G\	.	.	.	.
48B-\	.	.	.	.
48e-\JJJ	.	.	.	.
8r	.	.	48g\LLL	.
.	.	.	48b-X\	.
.	.	.	48ee-\	.
.	.	.	48gg\	.
.	.	.	48bb-\	.
.	.	.	48eee-\JJJ	.
*	*	*8va	*	*
4r	.	48ggg\LLL	4ryy	.
!LO:LB:g=original	!	!	!	!
.	.	48aaa-X\	.	.
.	.	48aaan\	.	.
.	.	48bbb-X\	.	.
.	.	48bbbn\	.	.
.	.	48ccccn\JJJ	.	.
.	.	48cccc#X\LLL	.	.
.	.	48dddd\	.	.
.	.	48eeee-\	.	.
.	.	48eeeen\	.	.
.	.	48ffff\	.	.
.	.	48eeee-X\JJJ	.	.
!	!	!LO:LB:g=original	!	!
*	*	*X8va	*	*
=39	=39	=39	=39	=39
48EE-\LLL	.	4G/ 4B- 4e- 4g	8ryy	.
48BB-\	.	.	.	.
48E-\	.	.	.	.
48G\	.	.	.	.
48B-\	.	.	.	.
48e-\JJJ	.	.	.	.
8r	.	.	48g\LLL	.
.	.	.	48b-\	.
.	.	.	48ee-\	.
.	.	.	48gg\	.
.	.	.	48bb-\	.
.	.	.	48eee-\JJJ	.
*	*	*8va	*	*
!	!	!LO:TX:b:i:t=rallentando     e	!	!
4r	.	48ggg\LLL	4ryy	.
.	.	48aaa-\	.	.
.	.	48aaan\	.	.
.	.	48bbb-\	.	.
.	.	48bbbn\	.	.
.	.	48cccc\JJJ	.	.
.	.	48cccc#X\LLL	.	.
.	.	48dddd\	.	.
.	.	48eeee-\	.	.
.	.	48eeeen\	.	.
.	.	48ffff\	.	.
.	.	48eeee-X\JJJ	.	.
*	*	*X8va	*	*
48EE-\LLL	.	4B-/ 4e- 4g 4b-	8ryy	.
48BB-\	.	.	.	.
48E-\	.	.	.	.
48G\	.	.	.	.
48B-\	.	.	.	.
48e-\JJJ	.	.	.	.
!	!	!	!	!LO:HP:t=diminuendo.
8r	.	.	48g\LLL	>
.	.	.	48b-X\	.
.	.	.	48ee-\	.
.	.	.	48gg\	.
.	.	.	48bb-\	.
.	.	.	48eee-\JJJ	.
*	*	*8va	*	*
4r	.	48ggg\LLL	4ryy	.
.	.	48aaa-X\	.	.
.	.	48aaan\	.	.
.	.	48bbb-X\	.	.
.	.	48bbbn\	.	.
.	.	48ccccn\JJJ	.	.
.	.	48cccc#X\LLL	.	.
.	.	48dddd\	.	.
.	.	48eeee-\	.	.
.	.	48eeeen\	.	.
.	.	48ffff\	.	.
.	.	48eeee-X\JJJ	.	.
*	*	*X8va	*	*
*	*	*v	*v	*
=40	=40	=40	=40
!	!	!	!LO:DY:a
1EE-: 1BB-: 1E-: 1G:	.	1B-;: 1g: 1b-: 1ee-:	pp
==	==	==	==
*-	*-	*-	*-
!!!RDF**kern: > = above
!!!RDF**kern: < = below
!!!system-decoration: [(s1,s2)]
!!!ENC: Filip Voros
!!!END: 2022-08-03
!!!ENC: 2022-09-08
!!!END: Julita Ruszuk!!!YEC: Copyright 2022 Narodowy Instytut Fryderyka Chopina (https://polishscores.org)
!!!YEM: License CC-BY-4.0 (https://creativecommons.org/licenses/by/4.0)
